assets/sonr-icons/laptop.svg

<svg xmlns="http://www.w3.org/2000/svg" width="24" height="24" fill="none" viewBox="0 0 24 24"><path fill="#000" d="M6.024 6.967C6.001 7.251 6 7.622 6 8.199V13.999H18V8.199C18 7.622 17.999 7.25 17.976 6.967C17.953 6.696 17.916 6.594 17.891 6.546C17.795 6.358 17.642 6.205 17.454 6.109C17.405 6.083 17.304 6.046 17.032 6.024C16.749 6.001 16.377 6 15.8 6H8.2C7.623 6 7.251 6.001 6.968 6.024C6.696 6.046 6.596 6.084 6.547 6.109C6.359 6.205 6.206 6.358 6.11 6.546C6.084 6.596 6.046 6.696 6.024 6.967ZM4.03 6.805C4.062 6.41 4.133 6.017 4.326 5.638C4.613 5.073 5.072 4.614 5.637 4.327C6.016 4.134 6.409 4.063 6.804 4.031C7.178 4 7.634 4 8.161 4H15.838C16.365 4 16.82 4 17.195 4.031C17.59 4.063 17.983 4.135 18.362 4.327C18.927 4.614 19.386 5.073 19.673 5.638C19.866 6.017 19.937 6.41 19.969 6.805C20 7.179 20 7.634 20 8.162V16H4V8.162C4 7.635 3.999 7.18 4.03 6.805Z"/><path fill="#000" d="M4.00301 16.014C4.00001 16.079 4.00001 16.169 4.00001 16.333C4.00001 17.017 4.00801 17.163 4.03401 17.259C4.12601 17.604 4.39601 17.873 4.74101 17.966C4.83601 17.992 4.98301 18 5.66701 18H18.334C19.019 18 19.164 17.992 19.259 17.966C19.604 17.874 19.873 17.604 19.966 17.259C19.991 17.164 20 17.017 20 16.333C20 16.169 20 16.08 19.997 16.014C19.997 16.01 19.996 16.006 19.996 16.004C19.993 16.004 19.989 16.003 19.986 16.003C19.921 16 19.831 16 19.667 16H4.33401C4.17001 16 4.08101 16 4.01501 16.003C4.01101 16.003 4.00701 16.003 4.00401 16.004C4.00401 16.007 4.00401 16.011 4.00301 16.014ZM1.99901 16.266C1.99801 16.031 1.99801 15.743 2.06701 15.482C2.25201 14.792 2.79101 14.253 3.48101 14.067C3.74201 13.997 4.02901 13.998 4.26501 13.999C4.28801 13.999 4.31101 13.999 4.33201 13.999H19.665C19.687 13.999 19.709 13.999 19.732 13.999C19.967 13.998 20.255 13.997 20.516 14.067C21.206 14.252 21.745 14.791 21.931 15.482C22.001 15.743 22 16.03 21.999 16.266C21.999 16.289 21.999 16.312 21.999 16.333C21.999 16.371 21.999 16.408 21.999 16.445C22 16.953 22 17.391 21.897 17.776C21.62 18.811 20.811 19.62 19.775 19.897C19.389 20.001 18.952 20 18.444 19.999C18.407 19.999 18.37 19.999 18.332 19.999H5.66501C5.62801 19.999 5.59001 19.999 5.55301 19.999C5.04501 20 4.60701 20 4.22201 19.897C3.18701 19.62 2.37801 18.811 2.10101 17.776C1.99801 17.39 1.99801 16.953 1.99901 16.445C1.99901 16.408 1.99901 16.371 1.99901 16.333C1.99901 16.311 1.99901 16.289 1.99901 16.266Z"/></svg>

<svg xmlns="http://www.w3.org/2000/svg" width="24" height="24" fill="none"><path fill="currentColor" d="M6.024 6.967A17 17 0 0 0 6 8.199v5.8h12v-5.8c0-.577-.001-.949-.024-1.232-.023-.271-.06-.373-.085-.421a1 1 0 0 0-.437-.437c-.049-.026-.15-.063-.422-.085C16.749 6.001 16.377 6 15.8 6H8.2c-.577 0-.949.001-1.232.024-.272.022-.372.06-.421.085a1 1 0 0 0-.437.437c-.026.05-.064.15-.086.421M4.03 6.805c.032-.395.103-.788.296-1.167a3 3 0 0 1 1.311-1.311c.379-.193.772-.264 1.167-.296C7.178 4 7.634 4 8.161 4h7.677c.527 0 .982 0 1.357.031.395.032.788.104 1.167.296a3 3 0 0 1 1.311 1.311c.193.379.264.772.296 1.167.031.374.031.829.031 1.357V16H4V8.162c0-.527-.001-.982.03-1.357"/><path fill="currentColor" d="M4.003 16.014C4 16.079 4 16.169 4 16.333c0 .684.008.83.034.926a1 1 0 0 0 .707.707c.095.026.242.034.926.034h12.667c.685 0 .83-.008.925-.034a1 1 0 0 0 .707-.707c.025-.095.034-.242.034-.926 0-.164 0-.253-.003-.319l-.001-.01-.01-.001C19.921 16 19.831 16 19.667 16H4.334c-.164 0-.253 0-.319.003l-.011.001zm-2.004.252c-.001-.235-.001-.523.068-.784a2 2 0 0 1 1.414-1.415c.261-.07.548-.069.784-.068h15.467c.235-.001.523-.002.784.068.69.185 1.229.724 1.415 1.415.07.261.069.548.068.784v.179c.001.508.001.946-.102 1.331a3 3 0 0 1-2.122 2.121c-.386.104-.823.103-1.331.102H5.553c-.508.001-.946.001-1.331-.102a3 3 0 0 1-2.121-2.121c-.103-.386-.103-.823-.102-1.331v-.179"/></svg>
